X:1
T:Praeludium 23
T:BWV 868
T:Fuga 23
%%score { ( 1 4 ) | ( 2 3 ) }
L:1/8
M:4/4
K:B
V:1 treble nm="Piano"
V:4 treble 
V:2 bass 
V:3 bass 
V:1
 z/ B/A/B/ c/A/B/c/ z/ d/c/d/ e/c/d/e/ | z/ f/d/e/ f/c/d/e/ d4 | c4- c/A/G/A/ B/G/A/B/- | %3
 B/G/F/G/ A/F/G/A/- A2 GF | ^E2 F4 ^E2 | F8 | z/ G/^^F/G/ A/F/G/A/ F/A/G/A/ B/G/A/B/ | %7
 c/g/^^f/g/ a/f/g/a/ d4 | c4- c/d/c/d/ e/c/d/e/ | A/B/A/B/ c/A/B/c/ Bdg^f | ^e4 z cf=e | ^d4 e4- | %12
 e/c/B/c/ d/B/c/d/- d2 cB | A2 B4 A2 | z/ =A/B/A/ G/B/A/G/ F4- | F/F/G/F/ ^E/G/F/E/- E4 | %16
 [FA]2 [GB]2 [Ac]2 [Bd]2 | z/ e/f/e/ d/f/e/d/ c2 B2- | B2 A2 !fermata![FB]4 |] %19
[M:4/4]"^a 4 voci" z8 | z8 | z FDE F2 B,D/^E/ | FG/A/ BA G4 | z BAB c2 FG/A/ | Bc/d/ ed c4- | %25
 cB/A/ Bc/B/ A/G/F/E/ DB | AB/c/ d/^e/f- fe/d/ e2 | fc/B/ cd ^B2 cd | e/d/e/f/ e/d/c/=B/ A2 Bc | %29
 ddef g/=a/g/f/ e/d/c/B/ | ^AB/c/ dc B2- B/c/d | e/f/g- gf/e/ d2 z/ d/c/B/ | A2 Bc d4- | %33
 dGAB cABc | d4 c4- | cB/c/ d/^e/f- f/e/f/g/ e>f | ffgf e2 =ba/g/ | fe/d/ cd e4 | %38
 d2 z f- f/^e/f/g/ a/g/a/b/ | ^e2 f2- f=e/d/ c/B/c/d/ | e/f/g- g/g/f/e/ d2- d/cB/- | %41
 BA/B/ c/d/e- ed/e/ f/g/=a- | a/g/=a/g/ f/e/d/c/ ^Bc d2- | dc/^B/ c2- c/e/d/c/ ^B2 | %44
 cG/F/ G=A ^E2 FG | =A/G/A/B/ A/G/F/E/ D2 EF | GG^AB c4- | cB z2 z4 | z8 | z fde f2 Bd/^e/ | %50
 fg/a/ ba g4 | f2- fe/d/ c/d/e- e/g/f/e/ | !fermata!d8 |] %53
V:2
 D2 E2 F2 G2 | A4 x4 | x8 | C,2 F,2 B,,/A,/G,/A,/ B,/G,/A,/B,/ | %4
 C,/D,/B,,/C,/ D,/B,,/C,/D,/ G,,2 C,2 | %5
 F,,/C,/B,,/C,/ D,/B,,/C,/D,/ F,,/A,,/G,,/A,,/ B,,/G,,/A,,/B,,/ | E,,2 E,2 D,4- | %7
 D,2 C,2 B,,A,, G,,2- | G,,/G,/^^F,/G,/ A,/F,/G,/A,/ E,EDC | DCDD, G,/A,/G,/A,/ B,/G,/A,/B,/ | %10
 C,C/B,/ =A,G, F,/G,/F,/G,/ A,/F,/G,/A,/ | B,,B,/=A,/ G,F, E,/D,/E,/D,/ C,/E,/D,/C,/ | %12
 F,2 B,,2 E,/D/C/D/ E/C/D/E/ | F,/G,/E,/F,/ G,/E,/F,/G,/ C,2 F,2 | %14
 B,,4- B,,/C,/D,/E,/ F,/=A,/G,/F,/ | [G,B,]8 | F,8- | F,/F,/E,/F,/ G,/E,/F,/G,/ F,4- | %18
 F,/D,/C,/D,/ E,/C,/D,/E,/ D,4 |][M:4/4] z B,A,B, C2 F,G,/A,/ | B,C/D/ ED TC4 | %21
 B,3 C/B,/ A,/G,/F,/E,/ D,B, | A,B,/C/ D/^E/F- F=E/D/ E/B,/E- | EDCB,- B,A,/G,/ A,D | %24
 G,2 z G/F/ EC z F/E/ | DCB,G, F,2 z2 | F,G,/A,/ B,A, G,4 | F,2 z2 z G,/=A,/ G,/F,/E,/D,/ | %28
 C,CDE FF,/G,/ F,/E,/D,/C,/ | z4 z B,^A,B, | C2 F,G,/A,/ B,C/D/ ED | C4 B, z z2 | %32
 z D/E/ D/C/B,/A,/ G,2 z2 | z C/D/ C/B,/A,/G,/ F,/E,/F,/G,/ F,/E,/D,/C,/ | B,, z z2 z B,A,G, | %35
 F,2- F,/G,/F,/^E,/ D,/C,/D,/B,,/ C,2- | C,F,/=E,/ F,/G,/A,/^B,/ C=B,/A,/ G,/F,/G,/A,/ | %37
 z/ D/E/F/ G/F/E/D/ C2 x2 | B,,/C,/D,/E,/ F,/G,/A,/F,/ G,/C,/D,/^E,/ F,/B,,/B,- | %39
 B,/A,/B,/C/ D/C/B,/A,/ G,4- | G,F,/E,/ F,2- F,2 z2 | x8 | z EDE F2 ^B,C/D/ | %43
 C,/=B,,/=A,,/G,,/ F,,/E,,/D,,/C,,/ D,,E,,/F,,/ G,,G,, | C,,2 z2 z C,/=D,/ C,/B,,/=A,,/G,,/ | %45
 F,,F,G,=A, B,B,,/C,/ B,,/=A,,/G,,/F,,/ | E,,/B,,/E,/F,/ E,/D,/C,/B,,/ ^A,,F,,G,,A,, | %47
 z4 z/ D/C/B,/ A,/G,/F,/E,/ | F,/D,/E,/F,/ G,/A,/B,- B,2 A,>G, | F,3 E,- E,D,/C,/ D,G, | %50
 C,2 z2 z4 | z4 z C/D/ C/B,/A,/G,/ | F,8 |] %53
V:3
 B,8- | B,8- | B,/G,/F,/G,/ A,/F,/G,/A,/ D,2 G,2 | x8 | x8 | x8 | x8 | %7
 A, G,2 ^^F,- F,/[I:staff -1]A/G/A/ B/G/A/B/ | x8 | x8 | x8 | x8 | x8 | x8 | x8 | x8 | %16
[I:staff +1] x4 z/ C/D/C/ B,/D/C/B,/ | A,2 B,2 A,,2 B,,2 | F,,4 !fermata!B,,4 |][M:4/4] x8 | x8 | %21
 x8 | x8 | x8 | z8 | z F,D,E, F,2 B,,D,/^E,/ | x8 | x8 | x8 | %29
 B,,/A,,/B,,/C,/ B,,/=A,,/G,,/F,,/ E,, z z2 | z E, D,E,/F,/ G,3 F, | E,2 F,2 B,B,,/C,/ B,,C, | %32
 D,2 z C, B,,G,,A,,B,, | C,2 z B,, A,,4- | A,,/A,,/B,,/C,/ B,,/A,,/G,,/F,,/ ^E,,^E,F,E, | %35
 D,3 C, B,,G,,C,C,, | F,, z z2 z4 | B,4- B,/B,/A,/G,/ F,/E,/D,/C,/ | x8 | z4 z B,,A,,B,, | %40
 C,2 F,,G,,/A,,/ B,,C,/D,/ E,D, | PC,4 B,,B,/C/ B,/=A,/G,/F,/ | %42
 E,2 =A,2 D,/C/^B,/^A,/ G,/F,/E,/D,/ | x8 | x8 | x8 | x8 | B,,/C,/D,/E,/ F,/G,/A,/B,/ E,4 | %48
 D,2 C,G,/F,/ E,/D,/C,/D,/ E,/G,/F,/E,/ | D,2 G,,2 F,,4- | %50
 F,,2 z/ G,,/A,,/B,,/ C,/D,/E,/F,/ G,/A,/B,/G,/ | A,/G,/F,/E,/ D,/C,/D,/E,/ F,4 | !fermata!B,,8 |] %53
V:4
 x8 | x4 z/ A/G/A/ B/G/A/B/ | ^E2 F2- F4 | ^E2 =E2 D4- | DCB,A, B,/A,/G,/A,/ B,/G,/A,/B,/ | %5
 A,2 B,2 C2 D2- | D2 C4 B,2 | x8 | E/B/A/G/ ^^F4 G2- | G2 ^^F2 G2 z2 | z/ c/B/c/ =d/B/c/d/ =A4 | %11
 z/ =A/G/A/ B/F/G/A/ G2 ^AB | A2 =A2 G4- | GFED E/D/C/D/ E/C/D/E/ | D2 E2- E2 DC | %15
 x4 B/c/B/c/ =d/B/c/d/ | z/ =E/F/E/ D/F/E/D/ x4 | c2 B2 z/ E/F/E/ D/F/E/D/ | C4 B,4 |][M:4/4] x8 | %20
 x8 | z8 | z8 | F2 z G/F/ E/D/C/B,/ A,F | DE/F/ G/A/B- BA/G/ A/B/A/G/ | F3 E- ED/C/ D/E/F/G/ | %26
 C2 z d/c/ BG z/ d/c/B/ | A2 z/ G/F/E/ D2 EF | G4- GCDE | FBcd e z z2 | z2 z F DE/F/ G/A/B- | %31
 BA/G/ A2- AG/^^F/ GA | ^^F2 GA B/A/B/c/ B/A/G/^F/ | ^E2 FG ACD=E | FF^EF G2 CD/E/ | %35
 FG/A/ BA G2- G/A/B | A2 ^Bd- dc z2 | x6 c2 | cBdc B2 f^e/d/ | cB/A/ GA B4- | B2 Ac- c/c/B/A/ GF | %41
 E2- E>F G/A/B- Bc/d/ | e z z2 z4 | EF/G/ =AG F2- F/A/G/F/ | E2 z/ C/B,/=A,/ G,2 ^A,B, | %45
 C4- CF,G,=A, | B,B,CD E/B/A/G/ F/E/D/C/ | DBAB c2 FG/A/ | Bc/d/ ed c4- | cB/A/ Bc/B/ A/G/F/E/ DB | %50
 AB/c/ d/^e/f- f=e/d/ e2- | ed/c/ B4 A2 | B8 |] %53

